X:0263
T:Bessy Bell and Marry Gray
M:6/8
L:1/8
Q:3/8=90
I: :: ::
Z:Jack Campin * www.campin.me.uk * 2009
K:D
D   |FGA AB=c|BAB G2G   |FGA ABA|f3     g2
f/g/|aAA AB=c|BAG g2f/g/|afd gec|d3 {de}f2 :|
f/g/|afd faf |ece g2f/g/|afd ded|f3     g>fg|
     afd faf |ece g>fg  |afd gec|d3 {de}f2 :|

